X:1
T:Dia si vedeva
T:Gia si vedeva
T:Enrico Radesca di Foggia
T:Source : Canzonette a 2 voci---Libro III---Venetia---G.Vincenti---1616. Editor : André Vierendeels (11/04/14).
C:Enrico Radesca di Foggio
%%score [ 1 2 ] 3
L:1/8
Q:1/4=120
M:5/4
K:C
V:1 treble nm="Soprano" snm="S"
V:2 bass nm="Bass" snm="B"
V:3 bass nm="MusicXML Part"
V:1
 d2 d2 d2 d2 d2 |[M:3/4] d6 | G2 A3 A |[M:4/4] B4 B4 ||[M:5/4] A2 A2 A2 A2 A2 |[M:3/4] A6 | %6
w: Gia si ve- de- va'il|cie-|lo nel con-|fi- ne,|dell' a- ria d'og- n'in-|tor-|
w: Ec- co per te,- O|bel-|la Fil- le'al|pas- so|son gion- to del- la|mor-|
w: Che giu- sto'e ben, che|s'e-|gli mai non|puo- te|im- pe- trar vi- vo|dal|
w: Las- so mo- ri- sti'et|io|che scor- go'in|tan- to|che la tua mor- te|nac-|
w: E pre- go'il Cie- lo|che|la su ti|ren- da|lu- ci- do si tra|l'a-|
w: In qu- sto sas- so|si|rin- chiu- d'e|ser- ra|un mi- se- ro Pa-|stor|
 A2 G3 G |[M:4/4] ^F4 F4 ||[M:5/4] c2 c2 c2 c2 c2 |[M:3/4] c6 | c2 B3 B |[M:4/4] A4 A4 || %12
w: no di te-|ne- bre,|cin- to, e'ar- ma- to|mi-|nac- ciar su'l|cri- ne,|
w: te'io mo- ro'a|Di- o,|e so- spi- ran- do|nel|mo- rir ti|las- cio|
w: tuo du- ro|co- re|pur un so- spir, che|la-|gri- me di-|vo- te|
w: que dal mi'or-|go- glio,|con fl'oc- ch'in ter- r'al|tuo|bel cor- po'in-|fran- to|
w: ni- me piu|chia- re,|e ch'il tuo spir- to|tra|di lor ris-|splen- da|
w: che men- tre|vis- se|a- mo tan- to'u- na|Nin-|fa, ch'al- la|ter- ra|
[M:5/4] G2 G2 G2 G2 G2 |[M:3/4] G6 | G2 A3 A |[M:4/4] B8 | G8 ||[M:5/4] d2 d2 d2 d2 d2 | %18
w: dell' in- fau- sto Da-|mon|pom- pa fu-|ne-|bre.|Quand' il mi- se- ro|
w: con pu- ra fe- de'il|mi-|se- ro cor|mi-|o:|Fal- le tu tom- ba|
w: per pie- ta'im- pe- tri|do-|po l'ul- tim'|ho-|re,|e che so- pra di|
w: del- la mia fe- ri-|ta|mi pen- to'e|do-|glio,|e con de- vo- to'e|
w: Co- me la Lu- na|tra|le stel- le'ap-|pa-|re,|e sem- pre so- pr'al|
w: a- mor piu bel- la|Don-|na non per-|mis-|se:|el- la sprez- zol- lo'et|
[M:3/4] d6 | G2 A3 A |[M:4/4] B4 B4 |[M:5/4] A2 A2 A2 A2 A2 |[M:3/4] A6 | A2 G3 G |[M:4/4] ^F4 F4 | %25
w: giun-|to la nel|fi- ne|del- la sua vi- ta'e|d'a-|mo- ro- sa|fe- bre,|
w: nell'|al- pe- stro|sas- so|di quel tuo pet- to|con|af- fet- to|pi- o|
w: me|quest' hu- mil|mo- re|di- chi'a- te'an- co- ra'O|mi-|se- ro Pa-|sto- re,|
w: ben|de- vu- to|pian- to|le la- gri- me ti|ren-|do ch'al- lo|sco- glio|
w: tuo|se- pul- cro|pen- da|pom- pa d'her- b'e di|fior|con que- ste|ca- re|
w: ei|con po- ca|guer- ra|sprez- za- to'a- man- te|si|nel duol s'af-|fis- se,|
[M:5/4] c2 c2 c2 c2 c2 |[M:3/4] c6 | c2 B3 B |[M:4/4] A4 A4 |[M:5/4] G2 G2 G2 G2 G2 |[M:3/4] G6 | %31
w: cin- tro'et ar- ma- to|nant'|al- la sua|Fil- le,|co- si di- cea ver|fan-|
w: fal- li l'es- se- quie'al-|me-|no d'u- na|so- la|la- gri- met- ta d'a-|mor,|
w: so che per trop- po'a-|mar-|mi'al fin ve-|ni- sti|de' me- sti gior- ni'e|chi|
w: di que- sto pet- to|con|que- gl'oc- chi|me- sti,|tan- te vol- te vi-|ven-|
w: no- te scol- pi- te'in-|ter-|no che me-|mo- ria|fac- cian co- si del-|la|
w: ch'al fin mo- ri da|do-|glia'op- pres- so'il|co- re|mal com- pen- sa- to|ser-|
 G2 A3 A |[M:4/4] B8 | G8 |] %34
w: do'a- ma- re|stil-|le.|
w: d'u- na pa-|ro-|la.|
w: me me- mo-|ri-|sti.|
w: do'in- dar- no|de-|sti.|
w: tua bel- la|glo-|ria.|
w: vi- tor d'A-|mo-|re.|
V:2
 G,2 G,2 G,2 G,2 G,2 |[M:3/4] G,6 | B,,2 C,2 D,2 |[M:4/4] G,,4 G,,4 ||[M:5/4] F,2 F,2 F,2 F,2 F,2 | %5
w: Gia si ve- de- va'il|cie-|lo nel con-|fi- ne,|dell' a- ria d'og- n'in-|
w: Ec- co per te, O|bel-|la Fil- le'al|pas- so|son gion- to del- la|
w: Che giu- sto'e ben, che|s'e-|glie mai non|puo- te|im- pe- trar vi- vo|
w: Las- so mo- ri- sti'et|io|che scor- go'in|tan- to|che- la tua mor- te|
w: E pre- go'il Cie- lo|che|la su ti|ren- da|lu- ci- do si tra|
w: In que- sto sas- so|si|rin- chiu- d'e|ser- ra|un mi- se- ro Pa-|
[M:3/4] F,6 | F,2 E,2 E,2 |[M:4/4] D,4 D,4 ||[M:5/4] A,,2 A,,2 A,,2 A,,2 A,,2 |[M:3/4] A,,6 | %10
w: tor-|no di- te-|ne- bre,|cin- to, e'ar- ma- to|mi-|
w: mor-|te'io mo- ro'a|Di- o,|e so- spi- ran- do|nel|
w: dal|tuo du- ro|co- re|pur un so- spir, che|la|
w: nac-|que dal mi'or-|go- glio,|con fl'oc- ch'in ter- r'al|tuo|
w: l'a-|ni- me piu|chia- re,|e ch'il tuo spir- to|tra|
w: stor|che men- tre|vis- se|a- mo tan- to'u- na|Nin-|
 D,2 E,2 E,2 |[M:4/4] A,,4 A,,4 ||[M:5/4] C,2 C,2 C,2 C,2 C,2 |[M:3/4] C,6 | E,2 D,2 D,2 | %15
w: nac- ciar su'l|cri- ne,|dell in- fau- sto Da-|mon|pom- pa fu-|
w: mo- rir ti|las- cio|con pu- ra fe- de'il|mi-|se- ro cor|
w: gri- ne di-|vo- te-|per pie- ta'im- pe- tri|do-|po l'ul- tim'|
w: bel cor- po'in-|fran- to|del- la mia fe- ri-|ta|mi pen- to'e|
w: di lor ris-|plen- da|Co- me la Lu- na|tra|le stel- le'ap-|
w: fa, ch'al- la|ter- ra|a- mor piu bel- la|Don-|na non per-|
[M:4/4] G,,8 | G,,8 ||[M:5/4] G,2 G,2 G,2 G,2 G,2 |[M:3/4] G,6 | B,,2 C,2 D,2 |[M:4/4] G,,4 G,,4 | %21
w: ne-|bre.|Quand' il mi- se- ro|giun-|to la nel|fi- ne|
w: mi-|o:|Fal- le tu tom- ba|nell'|al- pe- stro|sas- so|
w: ho-|re,|e che so- pra di|me|quest' hu- mil|mo- re|
w: do-|glio,|e con de- vo- to'e|ben|quest' hu- mil|mo- re|
w: pa-|re,|e sem- pre so- pr'al|tuo|se- pul- cro|pen- da|
w: mis-|se|el- la sprez- zol- lo'et|ei|con po- ca|guer- ra|
[M:5/4] F,2 F,2 F,2 F,2 F,2 |[M:3/4] F,6 | F,2 E,2 E,2 |[M:4/4] D,4 D,4 | %25
w: del- la sua vi- ta'e|d'a-|mo- ro- sa|fe- bre,|
w: di quel tuo pet- to|con|af- fet- to|pi- o|
w: di chi'a- te'an- co- ra'O|mi-|se- ro Pa-|sto- re,|
w: le la- gri- me ti|ren-|do ch'al- lo|sco- glio|
w: pom- pa d'her- b'e di|fier|con que- ste|ca- re|
w: sprez- za- to'a- man- te|si|nel duol s'af-|fis- se,|
[M:5/4] A,,2 A,,2 A,,2 A,,2 A,,2 |[M:3/4] A,,6 | D,2 E,2 E,2 |[M:4/4] A,,4 A,,4 | %29
w: cin- tro'et ar- ma- to|nant'|al- la sua|Fil- le|
w: fa- li l'es- se- quie'al-|me-|no d'u- na|so- la|
w: so che per trop- po'a-|mar-|mi'al fin ve-|ni- sti|
w: di que- sto pet- to|con|que- gl'oc- chi|me- sti,|
w: no- te scol- pi- te'in-|ter-|no che me-|mo- ria|
w: ch'al fin mo- ri da|do-|glia'op- pres- so'il|co- re|
[M:5/4] B,,2 B,,2 B,,2 B,,2 B,,2 |[M:3/4] C,6 | E,2 D,2 D,2 |[M:4/4] G,,8 | G,,8 |] %34
w: co- si di- dea ver|fan-|do'a- ma- re|stil-|le.|
w: la- gri- met- ta d'a-|mor,|d'u- na pa-|ro-|la.|
w: de' me- sti gior- nie|chi|me me- mo-|ri-|sti|
w: tan- te vol- te vi-|ven-|do'in- dar- no|de-|sti.|
w: fac- cian co- ci del-|la|tua bel- la|glo-|ria.|
w: man com- pen- sa- to|ser-|vi- tor d'A-|mo-|re/|
V:3
 G,8- G,2 |[M:3/4] G,6 | B,,2 C,2 D,2 |[M:4/4] G,,8 ||[M:5/4] F,8- F,2 |[M:3/4] F,6- | F,2 E,4 | %7
[M:4/4] D,8 ||[M:5/4] A,,8- A,,2 |[M:3/4] A,,6 | D,2 E,4 |[M:4/4] A,,8 ||[M:5/4] C,8- C,2 | %13
[M:3/4] C,6 | E,2 D,4 |[M:4/4] G,,8 | G,,8 ||[M:5/4] G,8- G,2 |[M:3/4] G,6 | B,,2 C,2 D,2 | %20
[M:4/4] G,,8 |[M:5/4] F,8- F,2 |[M:3/4] F,6 | F,2 E,4 |[M:4/4] D,8 |[M:5/4] A,,8- A,,2 | %26
[M:3/4] A,,6 | D,2 E,4 |[M:4/4] A,,8 |[M:5/4] B,,8- B,,2 |[M:3/4] C,6 | E,2 D,4 |[M:4/4] G,,8 | %33
 G,,8 |] %34

